X: 24
T: Tick Tock Clock (upper teacher part)
C: Edward Huws Jones
M: 4/4
K: D
L: 1/8
Q: 1/4 = 88
 z8 | z4 "^(arco)"z2 .!mf!!tenuto!uA2 | .!tenuto!d2 .!tenuto!e2 .!tenuto!f2 (dA) | .!tenuto!d2 .!tenuto!e2 .!tenuto!f2 (dA) | (g3 f) (g3 f) |
(g3 f) (ed!uppermordent!cA) | .!tenuto!d2 .!tenuto!e2 .!tenuto!f2 (dA) | .!tenuto!d2 !>(!.!tenuto!e2 (fe)(dA)!>)! | !p!F2 (FG) .F2 (FG) | .F2 !f!"0"!+!A2 "0"!+!D2 z2 |]

